symbols/web/slideshow/materialsymbolsoutlined/slideshow_wght200gradN25_40px.svg

<svg xmlns="http://www.w3.org/2000/svg" height="40" width="40"><path d="M16.625 25.75 25.542 20l-8.917-5.75Zm-7.5 7.458q-.958 0-1.646-.687-.687-.688-.687-1.646V9.125q0-.958.687-1.646.688-.687 1.646-.687h21.75q.958 0 1.646.687.687.688.687 1.646v21.75q0 .958-.687 1.646-.688.687-1.646.687Zm.042-1.333h21.666q.417 0 .729-.313.313-.312.313-.729V9.167q0-.417-.313-.729-.312-.313-.729-.313H9.167q-.417 0-.729.313-.313.312-.313.729v21.666q0 .417.313.729.312.313.729.313ZM8.125 8.125V31.875 8.125Z"/></svg>

<svg xmlns="http://www.w3.org/2000/svg" height="40" width="40"><path d="M16.625 25.75 25.542 20 16.625 14.25ZM9.125 33.208Q8.167 33.208 7.479 32.521Q6.792 31.833 6.792 30.875V9.125Q6.792 8.167 7.479 7.479Q8.167 6.792 9.125 6.792H30.875Q31.833 6.792 32.521 7.479Q33.208 8.167 33.208 9.125V30.875Q33.208 31.833 32.521 32.521Q31.833 33.208 30.875 33.208ZM9.167 31.875H30.833Q31.292 31.875 31.583 31.583Q31.875 31.292 31.875 30.833V9.167Q31.875 8.708 31.583 8.417Q31.292 8.125 30.833 8.125H9.167Q8.708 8.125 8.417 8.417Q8.125 8.708 8.125 9.167V30.833Q8.125 31.292 8.417 31.583Q8.708 31.875 9.167 31.875ZM8.125 31.875Q8.125 31.875 8.125 31.583Q8.125 31.292 8.125 30.833V9.167Q8.125 8.708 8.125 8.417Q8.125 8.125 8.125 8.125Q8.125 8.125 8.125 8.417Q8.125 8.708 8.125 9.167V30.833Q8.125 31.292 8.125 31.583Q8.125 31.875 8.125 31.875Z"/></svg>
